img/slide3/1977.svg

<svg viewBox="0 0 300 900" xmlns="http://www.w3.org/2000/svg"><path d="m-117.627364 588.017751v-286.68639h-45.273031l-86.099605 61.986247 27.082974 42.20774 47.698373-36.090677v218.58308zm104.3027267 11.982249c22.22666517-4.206243 42.7931089-11.838536 61.6993281-22.896879 18.9062191-11.058344 35.0341039-24.592944 48.3836576-40.603799 13.3495536-16.010856 23.7852436-34.464043 31.3070726-55.359566 7.521829-20.895524 11.282744-43.012211 11.282744-66.350068 0-9.633649-.847054-18.928087-2.541159-27.883311-1.694104-8.955224-4.201383-17.232023-7.521829-24.830393-3.320446-7.598371-7.284653-14.654003-11.892622-21.166893-4.607968-6.51289-9.859695-12.279511-15.755182-17.299864-5.895488-5.020354-12.2653243-9.294438-19.1095122-12.822253-6.8441879-3.527814-14.2304875-6.207598-22.158902-8.039348-7.9284145-1.831751-16.0940048-2.747626-24.4967678-2.747626-14.2304875 0-27.64780436 2.34057-40.25195046 7.02171-12.60414614 4.681139-23.48030444 11.160107-32.62847494 19.436906-9.1481706 8.276799-16.3650607 18.351426-21.6506704 30.223881-5.2856096 11.872454-7.9284144 24.728629-7.9284144 38.568521 0 11.533244 1.4908119 22.218454 4.4724389 32.055631 2.981627 9.837176 7.1491269 18.385345 12.5024998 25.644504 5.3533728 7.25916 11.689329 13.500678 19.0078654 18.724559 7.3185365 5.223882 15.3147142 9.12483 23.98853617 11.70285 8.67382201 2.57802 17.82199253 3.867028 27.44451163 3.867028 19.3805677 0 37.0670308-4.477612 53.0593893-13.432836l.4065853.203528c-8.1317071 20.217096-20.8374996 36.770693-38.1173773 49.660787s-39.33713338 23.066485-66.171767 30.529173zm48.0720782-161.982249c-14.2885907 0-25.65142339-4.046792-34.08849495-12.140379-8.43707157-8.093587-12.65560895-18.533632-12.65560895-31.320139 0-12.650479 4.42266011-23.362579 13.26797712-32.136298 8.84531698-8.77372 20.41227238-13.16058 34.70086308-13.16058 14.1525079 0 25.8215247 5.475072 35.0070473 16.425219 9.1855225 10.950148 13.7782838 25.266952 13.7782838 42.950419v3.46868c-6.1236817 7.617492-13.6081826 13.840711-22.4534996 18.669659-8.845317 4.828947-18.0308396 7.243419-27.5565678 7.243419zm210.8781431 157.100592 99.214238-255.001978v-37.009856h-177.53059v51.041066h115.648499l-93.533259 230.803225zm204.160178 0 99.214238-255.001978v-37.009856h-177.53059v51.041066h115.648499l-93.533259 230.803225z" fill="#362928" transform="matrix(0 -1 1 0 -300 600)"/></svg>

<?xml version="1.0" encoding="UTF-8"?>
<svg viewBox="0 0 300 900" version="1.1" xmlns="http://www.w3.org/2000/svg" xmlns:xlink="http://www.w3.org/1999/xlink">
    <title>1977</title>
    <g id="1977" stroke="none" stroke-width="1" fill="none" fill-rule="evenodd">
        <path d="M-117.627364,588.017751 L-117.627364,301.331361 L-162.900395,301.331361 L-249,363.317608 L-221.917026,405.525348 L-174.218653,369.434671 L-174.218653,588.017751 L-117.627364,588.017751 Z M-13.3246373,600 C8.90202787,595.793757 29.4684716,588.161464 48.3746908,577.103121 C67.2809099,566.044777 83.4087947,552.510177 96.7583484,536.499322 C110.107902,520.488466 120.543592,502.035279 128.065421,481.139756 C135.58725,460.244232 139.348165,438.127545 139.348165,414.789688 C139.348165,405.156039 138.501111,395.861601 136.807006,386.906377 C135.112902,377.951153 132.605623,369.674354 129.285177,362.075984 C125.964731,354.477613 122.000524,347.421981 117.392555,340.909091 C112.784587,334.396201 107.53286,328.62958 101.637373,323.609227 C95.741885,318.588873 89.3720487,314.314789 82.5278608,310.786974 C75.6836729,307.25916 68.2973733,304.579376 60.3689588,302.747626 C52.4405443,300.915875 44.274954,300 35.872191,300 C21.6417035,300 8.22438664,302.34057 -4.37975946,307.02171 C-16.9839056,311.702849 -27.8600639,318.181817 -37.0082344,326.458616 C-46.156405,334.735415 -53.3732951,344.810042 -58.6589048,356.682497 C-63.9445144,368.554951 -66.5873192,381.411126 -66.5873192,395.251018 C-66.5873192,406.784262 -65.0965073,417.469472 -62.1148803,427.306649 C-59.1332533,437.143825 -54.9657534,445.691994 -49.6123805,452.951153 C-44.2590077,460.210313 -37.9230515,466.451831 -30.6045151,471.675712 C-23.2859786,476.899594 -15.2898009,480.800542 -6.61597893,483.378562 C2.05784308,485.956582 11.2060136,487.24559 20.8285327,487.24559 C40.2091004,487.24559 57.8955635,482.767978 73.887922,473.812754 L74.2945073,474.016282 C66.1628002,494.233378 53.4570077,510.786975 36.17713,523.677069 C18.8972523,536.567163 -3.16000338,546.743554 -29.994637,554.206242 L-13.3246373,600 Z M34.7474409,438.017751 C20.4588502,438.017751 9.09601751,433.970959 0.658945946,425.877372 C-7.77812562,417.783785 -11.996663,407.34374 -11.996663,394.557233 C-11.996663,381.906754 -7.57400289,371.194654 1.27131412,362.420935 C10.1166311,353.647215 21.6835865,349.260355 35.9721772,349.260355 C50.1246851,349.260355 61.7937019,354.735427 70.9792245,365.685574 C80.164747,376.635722 84.7575083,390.952526 84.7575083,408.635993 L84.7575083,412.104673 C78.6338266,419.722165 71.1493257,425.945384 62.3040087,430.774332 C53.4586917,435.603279 44.2731691,438.017751 34.7474409,438.017751 Z M245.625584,595.118343 L344.839822,340.116365 L344.839822,303.106509 L167.309232,303.106509 L167.309232,354.147575 L282.957731,354.147575 L189.424472,584.9508 L245.625584,595.118343 Z M449.785762,595.118343 L549,340.116365 L549,303.106509 L371.46941,303.106509 L371.46941,354.147575 L487.117909,354.147575 L393.58465,584.9508 L449.785762,595.118343 Z" fill="#362928" fill-rule="nonzero" transform="translate(150.000000, 450.000000) rotate(-90.000000) translate(-150.000000, -450.000000) "></path>
    </g>
</svg>
